X:1
T:Kempshot Hunt. JC.009
M:C
L:1/8
Q:180
S:John Clare,Poet,Helpston. (1793-1864)
S:ChristopherGeorge Partington <ChrisTheFiddlerPartington:Hotmail.com> tradtunes 2008-1-26
R:Reel
O:England
A:Northamptonshire
N:
Z:vmp.P. Headford
K:Gmix
|:Ae2ce (c/B/)A ce|(c/B/)A ce dB B2|ce (c/B/)A cee2|cedf eAA2:|
|:(A/B/)A ec fdec|(A/B/)A ec dBB2|(A/B/)A ec fdec|cedf eAA2:|
|:{g}a2ec {g}a2ec|{g}a2ec dBB2|{g}a2ec {g}"Missing in ms"a2ec|cedf eAA2:|]
